X:1
T:D minor                    Jacob French, 1789
T:Isaac Watts, 1707 (Hymn 71)                        88. 88. (L. M.)
T:Venice
T:Transcribed from  The New American Melody, 1789.
%%score [ 1 2 3 4 ]
L:1/8
Q:1/4=80
M:2/4
K:F
V:1 treble nm="Tr." snm="Tr."
V:2 treble nm="C." snm="C."
V:3 treble-8 nm="T." snm="T."
V:4 bass nm="B." snm="B."
V:1
 A2 | A2 A2 | B2 c2 | B2 A2 | A4- | A2 A2 | A2 d2 | ^c2 B>A | G2 G2 | F4- | F2 F2 | FG Ad | c2 c2 | %13
w: 1.~Of-|ten I|seek my|Lord by|night,|* Je-|sus my|Love, my *|soul's de-|light;|* With|warm * de- *|sire and|
w: 2.~Then|I a-|rise and|search the|street,|* Till|I my|Lord, my *|Sa- vior|meet:|* I|ask * the *|watch- men|
 c3 d | e4- | e2 d2 | AG Fd | c2 c2 | B2 A2 | A4- | A4 |] %21
w: rest- less|thought|* I|seek * him *|oft, but|find him|not.||
w: of the|night,|* Where|did * you *|see my|soul's de-|light?||
V:2
 D2 | F2 EF | G2 A2 | GF E2 | F4- | F2 F2 | A2 GF | EF G2 | G>F E>D | C4- | C2 D2 | AG FA | A2 A2 | %13
w: 3.~Some-|times I *|find him|in * my|way,|* Di-|rec- ted *|by * a|hea- * venly *|ray;|* I|leap * for *|joy to|
w: 4.~I|bring him *|to my|mo- * ther's|home,|* Nor|does my *|Lord * re-|fuse * to *|come|* To|Zi- * on's *|sa- cred|
 A3 ^G | A4- | A2 F2 | FG A2 | A2 A2 | GF E2 | F4- | F4 |] %21
w: see his|face,|* And|hold * him|fast in|mine * em-|brace.||
w: cham- bers,|where|* My|soul * first|drew the|vi- * tal|air.||
V:3
 A2 | d2 ^c2 | d2 fe | d2 ^c2 | d4- | d2 d2 | c2 B2 | A2 d2 | c2 B2 | A4- | A2 A2 | d^c de/f/ | %12
w: 5.~He|gives me|there his *|blee- ding|heart,|* Pierced|for my|sake with|dead- ly|smart;|* I|give * my * *|
w: 6.~I|charge you,|all ye *|earth- ly|toys,|* Ap-|proach not|to dis-|turb my|joys;|* Nor|sin * nor * *|
 e2 f2 | (e/d/e/f/ e)d | c4- | c2 A2 | d^c de/f/ | e2 fe | d2 ^c2 | d4- | d4 |] %21
w: soul to|him, * * * * and|there|* Our|loves * their * *|mu- tual *|to- kens|share.||
w: hell come|near * * * * my|heart,|* Nor|cause * my * *|Sa- vior *|to de-|part.||
V:4
 D,2 | D,2 A,2 | G,2 F,2 | G,2 A,2 | D,4- | D,2 D,2 | F,2 G,2 | A,2 G,2 | C,2 E,2 | F,4- | %10
 F,2 D,2 | F,E, D,2 | [A,,A,]2 [F,,F,]2 | [A,,A,]2 [B,,B,]2 | [A,,A,]4- | [A,,A,]2 D,2 | F,E, D,2 | %17
 [A,,A,]2 [F,,F,]2 | [G,,G,]2 [A,,A,]2 | D,4- | D,4 |] %21

